X: 5384
T: Bucks Of Oranmore, The
R: reel
M: 4/4
K: Dmajor
|:A2 FA A2dB|ADFA BEE2|1 A2 FA A2Bd|egfd edBd:|2 DEFG A2AB|defd edBd||
|:ADD2 ADBD|ADD2 BEE2|1 ADD2 AFAB|defd edBd:|2 DEFG A2AB|defd edBd||
|:a2fd edef|a2fd edBd|1 a2fd eddf|g2 fd edBd:|2 faa2 bfaf|g2fd edBd||
|:f2df e2de|f2df edBd|1 f2df e2de|gefd edBd:|2 faaf bfaf|gefd edBd||
|:Adfd edfd|Adfd edBd|1 Adfd edef|g2 fd edBd:|2 faa2 bfaf|g2fd edBd||

